X:0534
M:2/4
L:1/16
Q:1/4=116
K:G
dc| B2G4 D2| E4 D2G2| F2``G2   c2``B2 |AGFE D2
dc| B2G4 D2| E4 D2G2| F2``G2   BA``GF |G4   G2::

